X:1
T:Let It Snow
C:Jule Styne
L:1/8
M:C
I:linebreak $
K:D treble
"Em" AA G2"A7" F2 E2 |"D" D2 A,2"D6" z2 E2 |"F#m" E3 D"Bm" E3 D |"Em" C2 A,2"A7" z2 B,2 |$
"Em" BB A2"Ebo" G2 F2 |"Em" E4"Fo" z2 cB |"Em" AA G2"A7" FF E2 |"D" D4"_Fine" z4 :|[K:A]$
"A" EF E2"Bm" C2 A2 |"C#m" E4"F#m" z2 EE |"Bm" D2 DC"E7" B,A, B,2 |"A" C4"A6" z2 CD |$
"A" EF E2"Bm" C2 A2 |"C#m" E4"F#m" z4 |"Bm" AG F2"E7" GF G2 ||
[K:D]"Em" A4"A7" z2"_D.C. al Fine" A,A, |]

